static/img/icons/gcp.svg

<svg fill="none" height="26" viewBox="0 0 26 26" width="26" xmlns="http://www.w3.org/2000/svg"><path d="m19.6 1c1.7552.19429 2.9366.63338 3.8184 1.62575 1.5816 1.77994 1.5816 4.6447 1.5816 10.37425 0 5.7296 0 8.5943-1.5816 10.3743-.8818.9924-2.0632 1.4314-3.8184 1.6257m-13.19999 0c-1.75516-.1943-2.93659-.6333-3.81838-1.6257-1.58163-1.78-1.58163-4.6447-1.58163-10.3743 0-5.72955 0-8.59431 1.58163-10.37425.88179-.99237 2.06322-1.43146 3.81838-1.62575" stroke="#fff" stroke-linecap="round" stroke-linejoin="round" stroke-width="1.5"/><path d="m15.477 9.85516h-.0442c-.7742-.6055-1.7585-.90212-2.7516-.82913s-1.722.16519-2.3926.87688c-.93036-.17984-2.74497-.26529-4.11747.79589.31303-1.11513.91504-1.81637 1.74916-2.64411s1.87281-1.43631 3.01791-1.76822c1.1452-.33191 2.359-.3762 3.5268-.1287 1.1678.24751 2.251.77864 3.1473 1.54323l-.0043.03601.0318-.0307c1.0266.8802 1.765 2.03086 2.1246 3.31079.9042.5911 1.5875 1.4477 1.9489 2.4431.3614.9955.3817 2.0769.0578 3.0844-.3239 1.0074-.9747 1.8874-1.8561 2.5096-.8815.6223-1.9468.9539-3.0383.9457h-3.9089l-.022-.0213h-3.89241c-1.10719.0047-2.18534-.342-3.06892-.9869l.00549-.0212-.00549.0053c-.83956-.624-1.45647-1.4859-1.76459-2.4652s-.29205-2.0272.04596-2.9973.98109-1.8139 1.83941-2.4136 1.88902-.9254 2.94814-.9315c.78329-.0027 1.55661.1698 2.25951.5039.7028.3341 1.3162.8208 1.7921 1.4221l-2.2674 2.1913c-.1301-.2785-.3283-.5223-.5774-.7104-.2491-.1882-.5417-.3152-.85274-.3701-.31104-.0548-.63121-.036-.93304.0551-.30183.091-.57631.2514-.79988.4675-.22357.216-.38957.4813-.48374.773s-.11371.6011-.05694.9017.18815.5834.38287.8242c.19473.2407.44698.4322.73512.558l-.00172.0017c.25227.1107.52615.1681.80326.1681h3.90891v.0266l.0055-.0054h3.9089c.2566 0 .5108-.0488.7479-.1437.2371-.095.4526-.2341.6341-.4095s.3254-.3836.4236-.6128c.0983-.2292.1488-.4748.1488-.7228 0-.2481-.0505-.4937-.1488-.7229-.0982-.2291-.2421-.4374-.4236-.6128-.1815-.1753-.397-.3145-.6341-.4094s-.4913-.1438-.7479-.1438v-.3767c.0111-.5711-.112-1.1372-.3603-1.6555-.2421-.5058-.5972-.9533-1.0394-1.31044z" fill="#fff"/></svg>

<svg width="26" height="26" viewBox="0 0 26 26" fill="none" xmlns="http://www.w3.org/2000/svg">
<path d="M19.6 1C21.3552 1.19429 22.5366 1.63338 23.4184 2.62575C25 4.40569 25 7.27045 25 13C25 18.7296 25 21.5943 23.4184 23.3743C22.5366 24.3667 21.3552 24.8057 19.6 25M6.40001 25C4.64485 24.8057 3.46342 24.3667 2.58163 23.3743C1 21.5943 1 18.7296 1 13C1 7.27045 1 4.40569 2.58163 2.62575C3.46342 1.63338 4.64485 1.19429 6.40001 1" stroke="white" stroke-width="1.5" stroke-linecap="round" stroke-linejoin="round"/>
<path d="M15.477 9.85516H15.4328C14.6586 9.24966 13.6743 8.95304 12.6812 9.02603C11.6881 9.09902 10.9592 9.19122 10.2886 9.90291C9.35824 9.72307 7.54363 9.63762 6.17113 10.6988C6.48416 9.58367 7.08617 8.88243 7.92029 8.05469C8.75441 7.22695 9.7931 6.61838 10.9382 6.28647C12.0834 5.95456 13.2972 5.91027 14.465 6.15777C15.6328 6.40528 16.716 6.93641 17.6123 7.701L17.608 7.73701L17.6398 7.70631C18.6664 8.58651 19.4048 9.73717 19.7644 11.0171C20.6686 11.6082 21.3519 12.4648 21.7133 13.4602C22.0747 14.4557 22.095 15.5371 21.7711 16.5446C21.4472 17.552 20.7964 18.432 19.915 19.0542C19.0335 19.6765 17.9682 20.0081 16.8767 19.9999H12.9678L12.9458 19.9786H9.05339C7.9462 19.9833 6.86805 19.6366 5.98447 18.9917L5.98996 18.9705L5.98447 18.9758C5.14491 18.3518 4.528 17.4899 4.21988 16.5106C3.91176 15.5313 3.92783 14.4834 4.26584 13.5133C4.60385 12.5432 5.24693 11.6994 6.10525 11.0997C6.96357 10.5 7.99427 10.1743 9.05339 10.1682C9.83668 10.1655 10.61 10.338 11.3129 10.6721C12.0157 11.0062 12.6291 11.4929 13.105 12.0942L10.8376 14.2855C10.7075 14.007 10.5093 13.7632 10.2602 13.5751C10.0111 13.3869 9.7185 13.2599 9.40746 13.205C9.09642 13.1502 8.77625 13.169 8.47442 13.2601C8.17259 13.3511 7.89811 13.5115 7.67454 13.7276C7.45097 13.9436 7.28497 14.2089 7.1908 14.5006C7.09663 14.7923 7.07709 15.1017 7.13386 15.4023C7.19063 15.7029 7.32201 15.9857 7.51673 16.2265C7.71146 16.4672 7.96371 16.6587 8.25185 16.7845L8.25013 16.7862C8.5024 16.8969 8.77628 16.9543 9.05339 16.9543H12.9623V16.9809L12.9678 16.9755H16.8767C17.1333 16.9755 17.3875 16.9267 17.6246 16.8318C17.8617 16.7368 18.0772 16.5977 18.2587 16.4223C18.4402 16.2469 18.5841 16.0387 18.6823 15.8095C18.7806 15.5803 18.8311 15.3347 18.8311 15.0867C18.8311 14.8386 18.7806 14.593 18.6823 14.3638C18.5841 14.1347 18.4402 13.9264 18.2587 13.751C18.0772 13.5757 17.8617 13.4365 17.6246 13.3416C17.3875 13.2467 17.1333 13.1978 16.8767 13.1978V12.8211C16.8878 12.25 16.7647 11.6839 16.5164 11.1656C16.2743 10.6598 15.9192 10.2123 15.477 9.85516Z" fill="white"/>
</svg>
